X:520
T: "Das Ringelein"
N: Z1200
O: Europa, Mitteleuropa, Deutschland, Schwaben
R: Liebes - Lied, verlassene Liebe; Tanz - Lied, Schnadahuepfel
M: 3/4
L: 1/8
K: G
Bc | B2A2A2 | G2B2
B2 | d2A2A2 | d4
Bc | B2A2A2 | G2B2
B2 | d2A2AB | G4

